X:1
T:James Gibb editions edited by W. Chiimak for Gloria Dei Schola
T:Ludovico da Viadana (c.1560-1627)
T:Exsultate justi
%%score [ 1 2 3 4 ]
L:1/8
Q:1/2=144
M:3/2
K:G
V:1 treble nm="Soprano" snm="S."
V:2 treble nm="Alto" snm="A."
V:3 treble-8 nm="Tenor" snm="T."
V:4 bass nm="Bass" snm="B."
V:1
 G8 G4 | G8 A4 | B4 B4 d4 | c8 c4 | B4 d4 c4 | B8 G4 | A8 B4 | A8 A4 || %8
w: Ex- sul-|ta- te|ju- sti in|Do- mi-|no, re- ctos|de- cet|col- lau-|da- ti-|
[M:4/4]"^V"[Q:1/4=88]"^Piu mosso" B4 B2 B2 | c2 cc B2 c2 | d4 d2 d2 | e2 ee d2 A2 | A4 B4 | %13
w: o. Con- fì-|te- mi- ni Do- mi-|no, con- fi-|te- mi- ni Do- mi-|no in|
 cBcd edcB | A2 B2 A3 A |[Q:1/4=100] B4 d2 d2 | e2 ee d2 ^c2 | d8 | z2 e2 (edcB | A2 G4) F2 | %20
w: ci\- * * * * * * *|* * * tha-|ra, con- fi-|te- mi- ni Do- mi-|no|in ci\- * * *|* * tha-|
[M:4/4] G2 d4 d2 | c2 cc B2 BB | A2 A2 d2 d2 | c2 cc B2 BB | A4 G4 | z4 B4- | B2 AG A2 D2 | z8 | %28
w: ra, in psal-|te- ri- o de- cem chor-|da- rum, in psal-|te- ri- o de- cem  chor-|da- rum.|Psal\-|* li- te il- li,||
 d8- | d4 c2 B2 | A4 D4 | z2 d2 d2 d2 | c4 B4 | z4 z2 d2 | d2 d2 c4 | B4 z4 | z4 z2 A2- | %37
w: psal\-|* li- te|il- li,|can- ta- te|e- i,|can-|ta- te e-|i,|can\-|
[M:4/4] AA A2 (Bc dB | cd eA Bc dB | ^c2 d4 c2) | d8 | z4 d2 d2 | c2 cc B4 | A2 A2 G2 G2 | %44
w: * ti- cum no\- * * *|||vum,|be- ne|psal- li- te e-|i in vo- ci-|
 F2 B4 G2 | (F4 E4) | F4 z4 | z8 | z4 d2 d2 | c2 cc B4 | A4 z4 | B6 B2 | A2 AA G4 | F4 z2 d2 | %54
w: fe- ra- ti-|o\- *|ne.||be- ne|psal- li- te e-|i,|be- ne|psal- li- te e-|i, in|
 B2 BB B2 A2 |[M:4/4] G4 G2 d2 |[M:4/4] B2 BB B2 A2 | (GABc d4) | d2 d2 d2 dc | (B4 A4- | %60
w: vo- ci- fe- ra- ti-|o- ne, in|vo- ci- fe- ra- ti-|o\- * * * *|ne, in vo- ci- fe-|ra\- *|
 A2) G2 (G4- | G2 FE F4) | G8 ||[M:3/2]"^a tempo"[Q:1/2=144] G8 G4 | G8 A4 | B4 B4 d4 | c8 c4 | %67
w: * ti- o\-||ne.|Ex- sul-|ta- te|ju- sti in|Do- mi-|
 B4 d4 c4 | B8 G4 |[Q:1/4=200]"^ritardando" A8 B4 | A8 A4 ||[M:2/2][Q:1/4=195] B8 |[Q:1/4=188] c8 | %73
w: no, re- ctos|de- cet|col- lau-|da- ti-|o,|col-|
[Q:1/4=180] B8 |[Q:1/4=174] G6[Q:1/4=170] G2 | !fermata!G8 |] %76
w: lau-|da- ti-|o.|
V:2
 D8 D4 | E8 F4 | G4 G4 F4 | A8 E4 | G4 G4 E4 | (G4 F4) E4 | E8 G4 | F8 F4 ||[M:4/4] G4 G2 G2 | %9
w: Ex- sul-|a- te|ju- sti in|Do- mi-|no, re- ctos|de\- * cet|col- lau-|da- ti-|o. Con- fì-|
w: |||||||||
 G2 GG G2 G2 | F4 G2 G2 | G2 GG G2 E2 | F4 G4 | EDEF G2 E2 | F2 G4 F2 | G4 G2 G2 | G2 GG G2 G2 | %17
w: te- mi- ni Do- mi-|no, con- fi-|te- mi- ni Do- mi-|no in|ci\- * * * * *|* * tha-|ra, con- fi-|te- mi- ni Do- mi-|
w: ||||||||
 F4 G4 | (EDEF G2 E2 | F2 D2- D3) D |[M:4/4] D8 | z4 D2 G2 | E2 EE D2 GG | E2 E2 D2 G2 | %24
w: no in|ci\- * * * * *|* * * tha-|ra,|in psal-|te- ri- o de- cem  chor-|da- rum, in psal-|
w: |||||||
 E2 EE D2 DD | E4 G4 | z4 z2 G2- | G2 FE D4 | D4 z2 G2- | G2 FE (F2 G2- | G2 FE F4) | G8 | %32
w: te- ri- o de- cem chor-|da- rum.|Psal\-|* li- te il-|li, psal\-|* li- te il\- *||li,|
w: ||||||||
 z2 G2 G2 G2 | E4 D4 | z4 z2 G2 | G2 G2 G4 | G4 F4- |[M:4/4] F4 G4 | E4 (G4- | G2 F2 E4) | %40
w: can- ta- te|e- i,|can-|ta- te e-|i, can\-|* ti-|cum no\-||
w: ||||||||
 F4 F2 F2 | G2 GE F2 D2 | z4 G2 G2 | F2 FF E2 E2 | D2 DD D2 E2- | ED (D4 ^C2) | D4 F2 F2 | %47
w: vum, be- ne|psal- li- te e- i,|be- ne|psal- li- te e- i|in vo- ci- fe- ra\-|* ti- o\- *|ne, be- ne|
w: |||||||
 G2 GE (F2 G2) | A4 z4 | z4 G2 G2 | F2 FF E4 | D2 G4 G2 | F2 FF E4 | D4 z4 | D8 |[M:4/4] D4 D2 F2 | %56
w: psal- li- te e\- *|i,|be- ne|psal- li- te e-|i, be- ne|psal- li- te e-|i,|in|vo- ci- fe-|
w: |||||||||
[M:4/4] D4 D4 | D4 D4 | z2 B,2 B,2 B,A, | G,2 G2 E4 | D2 D2 D2 DD | D2 D2 D4 | D8 ||[M:3/2] D8 D4 | %64
w: ra- ti-|o- ne,|in vo- ci- fe-|ra- ti- o-|ne, in vo- ci- fe-|ra- ti- o-|ne.|Ex- sul-|
w: ||||||||
 E8 F4 | G4 G4 F4 | A8 E4 | G4 G4 E4 | (G4 F4) E4 | E8 G4 | F8 F4 ||[M:2/2] G8 | G8- | G4 F4 | %74
w: ta- te|ju- sti in|Do- mi-|no, re- ctos|de\- * cet|col- lau-|da- ti-||col-||
w: |||||||||* lau-|
 E6 E2 | !fermata!D8 |] %76
w: da- ti-|o.|
w: ||
V:3
 B8 B4 | B8 d4 | d4 d4 d4 | e8 c4 | d4 B4 c4 | d8 e4 | c8 d4 | d8 d4 ||[M:4/4] d4 d2 d2 | %9
w: Ex- sul-|ta- te|ju- sti in|Do- mi-|no, re- ctos|de- cet|col- lau-|da- ti-|o. Con- fi-|
 e2 ee d2 e2 | A4 B2 B2 | c2 cc B2 c2 | d4 G4 | c8 | d8 | G4 B2 B2 | c2 cc B2 G2 | A4 B4 | %18
w: te- mi- ni Do- mi-|no, con- fi-|te- ~mi- ni Do- mi-|no in|ci-|tha-|ra, con- fi-|te- mi- ni Do- mi-|no in|
 (cBcd c2 G2 | d2 B2 A3) A |[M:4/4] G4 z4 | z4 G2 G2 | A2 AA B2 BB | c2 c2 G2 G2 | A2 AA B2 BB | %25
w: ci\- * * * * *|* * * tha-|ra,|in psal-|te- ri- o de- cem  chor-|da- rum, in psal-|te- ri- o de- cem chor-|
 c4 d4 | d6 cB | A2 A2 B4- | B4 A2 G2 | (A2 B2 A2 d2- | d2 cB A4) | B8 | z2 e2 d2 d2 | %33
w: da- rum.|Psal- li- te|il- li, psal-|* li- te|il\- * * *||li,|can- ta- te|
[K:treble-8] c4 B4 | z4 z2 c2 | d2 d2 e4 | d4 d4- |[M:4/4] d2 d2 d4 | z8 | z4 A4 | A4 d2 d2 | %41
w: e- i,|can-|ta- te e-|i, can\-|* ti- cum||no-|vum, be- ne|
 c2 cc B4 | A2 A2 (GABc | d2) D2 (EFGA | B4) G2 E2 | (F3 G A4) | d8 | z4 d2 d2 | c2 cc B4 | A4 z4 | %50
w: psal- li- te e-|i in vo\- * * *|* ci- fe\- * * *|* ra- ti-|o\- * *|ne.|be- ne|psal- li- te e-|i.|
 z8 | z2 d4 d2 | d2 dd B4- | B4 A4 | z4 z2 D2 |[M:4/4] G2 GG G2 A2 |[M:4/4] B4 G2 D2 | %57
w: |be- ne|psal- li- te e\-|* i,|in|vo- ci- fe- ra- ti-|o- ne, in|
 G2 GG G2 A2 | (B3 c d4) | d4 c4 | B4 B2 B2 | A2 B2 A4 | G8 ||[M:3/2] B8 B4 | B8 d4 | d4 d4 d4 | %66
w: vo- ci- fe- ra- ti-|o\- * *|ne, in|vo- ci- fe-|ra- ti- o-|ne.|Ex- sul-|ta- te|ju- sti in|
 e8 c4 | d4 B4 c4 | d8 e4 |[K:treble-8] c8 d4 | d8 d4 ||[M:2/2] d8 | e8- | e4 d4 | c6 c2 | %75
w: Do- mi-|no, re- ctos|de- cet|col- lau-|da- ti-|||||
 !fermata!B8 |] %76
w: |
V:4
 G,8 G,4 | E,8 D,4 | G,4 G,4 B,4 | A,8 A,4 | G,4 G,4 A,4 | B,8 C4 | A,8 G,4 | D,8 D,4 || %8
w: Ex- sul-|ta- te|ju- sti in|Do- mi-|no, re- ctos|de- cet|col- lau-|da- ti-|
[M:4/4] G,,4 G,2 G,2 | C,2 C,C, G,2 E,2 | D,4 G,2 G,2 | C,2 C,C, G,2 A,2 | D,4 z4 | z8 | z8 | %15
w: o. Con- fi-|te- mi- ni Do- mi-|no, con- fi-|te- mi- ni Do- mi-|no,|||
 z4 G,2 G,2 | C,2 C,C, G,2 E,2 | D,4 G,,4 | C,8 | D,8 |[M:4/4] G,,4 G,2 G,2 | A,2 A,A, B,2 B,B, | %22
w: con- fi-|te- mi- ni Do- mi-|no in|ci-|tha-|ra, in psal-|te- ri- o de- cem  chor-|
 C2 C2 G,2 G,2 | A,2 A,A, B,2 B,B, | C4 G,4 | z4 G,4- | G,2 F,E, D,4 | D,4 G,4- | G,4 F,2 E,2 | %29
w: da- rum in psal-|te- ri- o de- cem chor-|da- rum.|Psal-|* li- te il-|li, psal\-|* li- te|
 D,8- | D,8 | G,,8 | z2 C,2 G,2 G,2 | C,4 G,4 | z4 z2 C,2 | G,2 G,2 C4 | G,4 D,4- | %37
w: il\-||li,|can- ta- te|e- i,|can-|ta- te e-|i, can\-|
[M:4/4] D,4 G,4 | A,4 (G,4 | A,8) | D,4 z4 | z8 | z8 | z8 | z8 | z8 | z4 D2 D2 | C2 CC B,4 | %48
w: * ti-|cum no\-||vum.||||||be- ne|psal- li- te e-|
 A,4 z4 | z4 G,2 G,2 | D2 DD C4 | G,4 G,2 G,2 | D,2 D,D, E,4 | B,,4 D,4 | G,2 G,G, G,2 A,2 | %55
w: i,|be- ne|psal- li- te e-|i, be- ne|psal- li- te e-|i, in|vo- ci- fe- ra- ti-|
[M:4/4] B,4 G,2 D,2 |[M:4/4] G,2 G,G, G,2 A,2 | B,4 G,2 D,2 | B,,2 B,,A,, G,,4- | G,,4 A,,4 | %60
w: o- ne, in|vo- ci- fe- ra- ti-|o- ne, in|vo- ci- fe- ra\-|* ti-|
 (B,,6 C,2 | D,8) | G,,8 ||[M:3/2] G,8 G,4 | E,8 D,4 | G,4 G,4 B,4 | A,8 A,4 | G,4 G,4 A,4 | %68
w: o\- *||ne.|Ex- sul-|ta- te|ju- sti in|Do- mi-|no, re- ctos|
 B,8 C4 | A,8 G,4 | D,8 D,4 ||[M:2/2] G,,8 | (C,6 D,2 | E,4) B,,4 | C,6 C,2 | !fermata!G,,8 |] %76
w: de- cet|col- lau-|da- ti-|o,|col\- *|* lau-|da- ti-|o.|

